X: 1
T: the Fairy Hillock
O: Old pipe tune
R: reel
Z: 2005 John Chambers <jc:trillian.mit.edu>
M: C|
L: 1/8
K: Am
"(E7)"ed \
| "Am"c2A2 ABcB | "Am"ABce a2"D7"dc |1 "G"B2G2 GABA | "G"GABc "E7"d2 \
                                   :|2 "G"B2G2 "E7"eaed | "Am"c2A2 A2 |]
|: cB \
| "Am"Aa^ga Aaga | "Am"Aa^ga e2"D7"dc |1 "G"Bgdg Bgdg | "G"BGBc "E7"d2 \
                                     :|2 "G"Bgdg "E7"eaed | "Am"c2A2 A2 |]
